icons/filled/arrow-big-right-line.svg

<svg xmlns="http://www.w3.org/2000/svg" width="24" height="24" viewBox="0 0 24 24" fill="currentColor"><path d="M12.089 3.634a2 2 0 0 0 -1.089 1.78l-.001 2.586h-4.999a1 1 0 0 0 -1 1v6l.007 .117a1 1 0 0 0 .993 .883l4.999 -.001l.001 2.587a2 2 0 0 0 3.414 1.414l6.586 -6.586a2 2 0 0 0 0 -2.828l-6.586 -6.586a2 2 0 0 0 -2.18 -.434l-.145 .068z"/><path d="M3 8a1 1 0 0 1 .993 .883l.007 .117v6a1 1 0 0 1 -1.993 .117l-.007 -.117v-6a1 1 0 0 1 1 -1z"/></svg>

<svg xmlns="http://www.w3.org/2000/svg" width="24" height="24" fill="currentColor"><path d="M12.089 3.634A2 2 0 0 0 11 5.414L10.999 8H6a1 1 0 0 0-1 1v6l.007.117A1 1 0 0 0 6 16l4.999-.001.001 2.587A2 2 0 0 0 14.414 20L21 13.414a2 2 0 0 0 0-2.828L14.414 4a2 2 0 0 0-2.18-.434zM3 8a1 1 0 0 1 .993.883L4 9v6a1 1 0 0 1-1.993.117L2 15V9a1 1 0 0 1 1-1"/></svg>
